src/images/404-icon.svg

<svg width="216" height="244" viewBox="0 0 216 244" fill="none" xmlns="http://www.w3.org/2000/svg">
<path id="Union" fill-rule="evenodd" clip-rule="evenodd" d="M80.3223 14.8005C78.5113 7.25462 84.2307 4.57764e-05 91.9909 4.57764e-05H127.913C135.673 4.57764e-05 141.392 7.25461 139.581 14.8005L130.448 52.8546C129.154 58.25 124.328 62.0541 118.78 62.0541H115.028V65.2418C115.028 67.1668 114.318 69.0242 113.035 70.4588L104.235 80.2941C100.895 84.0268 101.14 89.7415 104.788 93.1743C105.782 94.1105 106.933 94.785 108.153 95.1974C108.57 95.1225 108.991 95.1153 109.402 95.1717C110.238 95.0572 111.116 95.2048 111.906 95.6501C113.883 95.4812 115.817 94.6767 117.378 93.2352L118.397 92.2948C120.109 90.7149 121.082 88.4916 121.082 86.1622C121.082 83.9531 122.873 82.1622 125.082 82.1622C127.291 82.1622 129.082 83.9531 129.082 86.1622C129.082 90.7243 127.175 95.0789 123.823 98.1732L122.804 99.1137C122.161 99.7073 121.484 100.243 120.78 100.721L179.113 134.054H199.571C208.408 134.054 215.571 141.218 215.571 150.054V227.676C215.571 236.512 208.408 243.676 199.571 243.676H16.0039C7.16737 243.676 0.00390625 236.512 0.00390625 227.676V150.054C0.00390625 141.218 7.16735 134.054 16.0039 134.054H39.6916L99.9802 99.6035C99.7511 99.4092 99.5258 99.208 99.3046 98.9999C92.4971 92.5928 92.0393 81.9266 98.2728 74.9598L107.028 65.1745V62.0541H101.124C95.5752 62.0541 90.7502 58.25 89.4553 52.8546L80.3223 14.8005ZM109.158 103.573C109.354 103.595 109.55 103.614 109.745 103.63L162.989 134.054H55.8162L109.158 103.573ZM40.8314 142.054H177.973C178 142.055 178.027 142.055 178.053 142.055C178.076 142.055 178.098 142.055 178.121 142.054H199.571C203.99 142.054 207.571 145.636 207.571 150.054V227.676C207.571 232.094 203.99 235.676 199.571 235.676H16.0039C11.5856 235.676 8.00391 232.094 8.00391 227.676V150.054C8.00391 145.636 11.5856 142.054 16.0039 142.054H40.6838C40.733 142.055 40.7821 142.055 40.8314 142.054ZM91.9909 8.00005C89.4042 8.00005 87.4977 10.4182 88.1014 12.9335L97.2344 50.9876C97.666 52.7861 99.2744 54.0541 101.124 54.0541H118.78C120.629 54.0541 122.238 52.7861 122.669 50.9876L131.802 12.9335C132.406 10.4182 130.5 8.00005 127.913 8.00005H91.9909ZM126.205 196.47C126.205 200.135 125.783 203.392 124.939 206.239C124.095 209.061 122.882 211.434 121.3 213.358C119.718 215.31 117.78 216.786 115.486 217.788C113.192 218.79 110.569 219.291 107.616 219.291C104.689 219.291 102.065 218.803 99.7451 217.828C97.4248 216.826 95.4604 215.336 93.8521 213.358C92.2437 211.434 91.0176 209.061 90.1738 206.239C89.3301 203.392 88.9082 200.135 88.9082 196.47V182.983C88.9082 179.318 89.3301 176.075 90.1738 173.254C91.0176 170.406 92.2437 168.007 93.8521 166.056C95.4341 164.104 97.3721 162.628 99.666 161.626C101.986 160.598 104.61 160.083 107.537 160.083C110.49 160.083 113.113 160.598 115.407 161.626C117.728 162.628 119.692 164.104 121.3 166.056C122.882 168.007 124.095 170.406 124.939 173.254C125.783 176.075 126.205 179.318 126.205 182.983V196.47ZM96.2646 195.007L118.69 177.802C118.479 175.904 118.097 174.229 117.543 172.779C117.016 171.303 116.291 170.077 115.368 169.101C114.471 168.099 113.364 167.348 112.045 166.847C110.753 166.346 109.25 166.095 107.537 166.095C105.796 166.095 104.254 166.372 102.909 166.926C101.591 167.453 100.47 168.231 99.5474 169.259C98.4399 170.551 97.6094 172.226 97.0557 174.282C96.5283 176.312 96.2646 178.672 96.2646 181.362V191.012V192.99V195.007ZM118.848 198.013V189.865V187.611V184.803L96.4624 201.928C96.6997 203.853 97.1216 205.554 97.728 207.03C98.3345 208.48 99.1255 209.68 100.101 210.629C100.998 211.526 102.079 212.211 103.344 212.686C104.61 213.134 106.034 213.358 107.616 213.358C109.277 213.358 110.753 213.108 112.045 212.607C113.337 212.106 114.432 211.381 115.328 210.432C116.541 209.14 117.424 207.452 117.978 205.369C118.558 203.286 118.848 200.834 118.848 198.013ZM71.0708 199.16H79.0996V205.132H71.0708V218.5H63.7539V205.132H37.4922V200.821L63.2793 160.914H71.0708V199.16ZM45.6001 199.16H63.7539V170.644L62.5674 172.858L45.6001 199.16ZM176.395 199.16H168.366V160.914H160.574L134.787 200.821V205.132H161.049V218.5H168.366V205.132H176.395V199.16ZM161.049 199.16H142.895L159.862 172.858L161.049 170.644V199.16Z" fill="#00CC66"/>
</svg>

<svg width="216" height="244" fill="none" xmlns="http://www.w3.org/2000/svg"><path fill-rule="evenodd" clip-rule="evenodd" d="M80.322 14.8C78.512 7.255 84.231 0 91.991 0h35.922c7.76 0 13.479 7.255 11.668 14.8l-9.133 38.055a12 12 0 0 1-11.668 9.2h-3.752v3.187c0 1.925-.71 3.782-1.993 5.217l-8.8 9.835a9.232 9.232 0 0 0 .553 12.88 9.193 9.193 0 0 0 3.365 2.023 3.991 3.991 0 0 1 1.249-.025 3.982 3.982 0 0 1 2.504.478 9.199 9.199 0 0 0 5.472-2.415l1.019-.94a8.344 8.344 0 0 0 2.685-6.133 4 4 0 0 1 8 0c0 4.562-1.907 8.917-5.259 12.011l-1.019.94c-.643.594-1.32 1.13-2.024 1.608l58.333 33.333h20.458c8.837 0 16 7.164 16 16v77.622c0 8.836-7.163 16-16 16H16.004c-8.837 0-16-7.164-16-16v-77.622c0-8.836 7.163-16 16-16h23.688l60.288-34.45c-.229-.195-.454-.396-.675-.604-6.808-6.407-7.266-17.073-1.032-24.04l8.755-9.785v-3.12h-5.904a12 12 0 0 1-11.669-9.2L80.322 14.8Zm28.836 88.773c.196.022.392.041.587.057l53.244 30.424H55.816l53.342-30.481Zm-68.327 38.481h137.142l.08.001.068-.001h21.45a8 8 0 0 1 8 8v77.622a8 8 0 0 1-8 8H16.004a8 8 0 0 1-8-8v-77.622a8 8 0 0 1 8-8H40.83ZM91.991 8a4 4 0 0 0-3.89 4.934l9.133 38.054a4 4 0 0 0 3.89 3.066h17.656a4 4 0 0 0 3.889-3.066l9.133-38.054A4 4 0 0 0 127.913 8H91.991Zm34.214 188.47c0 3.665-.422 6.922-1.266 9.769-.844 2.822-2.057 5.195-3.639 7.119a15.224 15.224 0 0 1-5.814 4.43c-2.294 1.002-4.917 1.503-7.87 1.503-2.927 0-5.551-.488-7.87-1.463a15.324 15.324 0 0 1-5.894-4.47c-1.608-1.924-2.834-4.297-3.678-7.119-.844-2.847-1.266-6.104-1.266-9.769v-13.487c0-3.665.422-6.908 1.266-9.729.844-2.848 2.07-5.247 3.678-7.198a15.224 15.224 0 0 1 5.814-4.43c2.32-1.028 4.944-1.543 7.871-1.543 2.953 0 5.576.515 7.87 1.543a15.476 15.476 0 0 1 5.893 4.43c1.582 1.951 2.795 4.35 3.639 7.198.844 2.821 1.266 6.064 1.266 9.729v13.487Zm-29.94-1.463 22.425-17.205c-.211-1.898-.593-3.573-1.147-5.023-.527-1.476-1.252-2.702-2.175-3.678-.897-1.002-2.004-1.753-3.323-2.254-1.292-.501-2.795-.752-4.508-.752-1.741 0-3.283.277-4.628.831a8.88 8.88 0 0 0-3.362 2.333c-1.107 1.292-1.938 2.967-2.491 5.023-.528 2.03-.791 4.39-.791 7.08v13.645Zm22.583 3.006V184.803l-22.386 17.125c.238 1.925.66 3.626 1.266 5.102.607 1.45 1.398 2.65 2.373 3.599.897.897 1.978 1.582 3.243 2.057 1.266.448 2.69.672 4.272.672 1.661 0 3.137-.25 4.429-.751 1.292-.501 2.387-1.226 3.283-2.175 1.213-1.292 2.096-2.98 2.65-5.063.58-2.083.87-4.535.87-7.356Zm-47.777 1.147H79.1v5.972h-8.03V218.5h-7.316v-13.368H37.492v-4.311l25.787-39.907h7.792v38.246Zm-25.47 0h18.153v-28.516l-1.187 2.214L45.6 199.16Zm130.794 0h-8.029v-38.246h-7.792l-25.787 39.907v4.311h26.262V218.5h7.317v-13.368h8.029v-5.972Zm-15.346 0h-18.154l16.967-26.302 1.187-2.214v28.516Z" fill="#0C6"/></svg>
